assets/svg/battery_low_icon.svg

<svg fill="none" height="118" viewBox="0 0 59 118" width="59" xmlns="http://www.w3.org/2000/svg"><g fill="#7200a6"><path d="m50.0503 11.8383-4.6991-.0966v-3.11177c-.0219-2.18143-.8973-4.26627-2.4363-5.80117-1.5395-1.53502-3.6178-2.396143-5.7837-2.396143h-15.2207c-2.1661 0-4.2443.861153-5.7837 2.396143-1.539 1.53502-2.4144 3.61985-2.4363 5.80117v3.11177l-4.64433.0966c-2.1799 0-4.27097.8724-5.81222 2.4253-1.54171 1.553-2.407778 3.6589-2.407778 5.8547v89.0097c.003568 2.232.885238 4.371 2.451958 5.949 1.56625 1.578 3.68987 2.466 5.90504 2.47h40.71643c2.2155-.004 4.3388-.892 5.9055-2.47 1.5662-1.578 2.4478-3.717 2.4515-5.949v-89.0097c0-2.1935-.8639-4.2972-2.4024-5.8497-1.5387-1.5525-3.6263-2.4263-5.8039-2.4303zm-28.085-5.8857h15.07c.7264 0 1.4235.29109 1.9373.80859.5142.5175.8027 1.21957.8027 1.95143l.0615 5.76178h-20.7281l.0616-5.76178c0-.74166.2961-1.45187.8219-1.97121s1.2366-.80366 1.9729-.78883zm30.7907 103.1964c-.0018.768-.3055 1.504-.8446 2.048-.5392.543-1.2697.849-2.0323.85h-40.73696c-.7626-.001-1.49307-.307-2.03228-.85-.53917-.544-.84287-1.28-.84465-2.048v-89.01c-.00045-.7426.29702-1.4542.82415-1.9739.52713-.5193 1.24019-.8027 1.97736-.7861l7.25408-.1451h26.3588l7.3089.1451h.0005c.7264 0 1.4235.2911 1.9372.8086.5138.5175.8028 1.2196.8028 1.9514z"/><path d="m15.2868 63.9052 7.7884-.0759-7.8155 21.1485c-.2212.6226.0272 1.3157.5922 1.6527.565.3364 1.2875.2223 1.7228-.2727l28.085-32.3472v.0005c.3487-.3985.4393-.9632.2332-1.4519-.206-.4888-.6725-.8149-1.1992-.8392l-9.0491-.4622 9.3505-15.7182c.2449-.4268.2449-.9533 0-1.38-.2381-.416-.6738-.6774-1.1506-.69l-15.07-.5867c-.5449-.0216-1.0511.2848-1.2879.7798l-13.4534 28.29c-.2015.4286-.1703.9317.0821 1.332.2493.4061.6979.6442 1.1716.6208zm14.2891-28.29 11.8779.4623-9.3639 15.732c-.2386.4142-.2471.9231-.0223 1.3449s.6507.6963 1.1252.725l8.5143.4416-21.235 24.5088 5.8912-15.87c.1597-.4258.1008-.9034-.1574-1.2767-.2573-.3684-.6765-.5871-1.1234-.5867l-7.5898.0413z"/><path d="m9.23145 96.9775h39.73005v11.8265h-39.73005z"/></g></svg>

<svg width="59" height="118" viewBox="0 0 59 118" fill="none" xmlns="http://www.w3.org/2000/svg">
<path d="M50.0503 11.8383L45.3512 11.7417V8.62993C45.3293 6.4485 44.4539 4.36366 42.9149 2.82876C41.3754 1.29374 39.2971 0.432617 37.1312 0.432617H21.9105C19.7444 0.432617 17.6662 1.29377 16.1268 2.82876C14.5878 4.36378 13.7124 6.44861 13.6905 8.62993V11.7417L9.04617 11.8383C6.86627 11.8383 4.7752 12.7107 3.23395 14.2636C1.69224 15.8166 0.826172 17.9225 0.826172 20.1183V109.128C0.82974 111.36 1.71141 113.499 3.27813 115.077C4.84438 116.655 6.968 117.543 9.18317 117.547H49.8996C52.1151 117.543 54.2384 116.655 55.8051 115.077C57.3713 113.499 58.2529 111.36 58.2566 109.128V20.1183C58.2566 17.9248 57.3927 15.8211 55.8542 14.2686C54.3155 12.7161 52.2279 11.8423 50.0503 11.8383ZM21.9653 5.9526H37.0353C37.7617 5.9526 38.4588 6.24369 38.9726 6.76119C39.4868 7.27869 39.7753 7.98076 39.7753 8.71262L39.8368 14.4744H19.1087L19.1703 8.71262C19.1703 7.97096 19.4664 7.26075 19.9922 6.74141C20.518 6.22207 21.2288 5.93775 21.9651 5.95258L21.9653 5.9526ZM52.756 109.149C52.7542 109.917 52.4505 110.653 51.9114 111.197C51.3722 111.74 50.6417 112.046 49.8791 112.047H9.14214C8.37954 112.046 7.64907 111.74 7.10986 111.197C6.57069 110.653 6.26699 109.917 6.26521 109.149V20.139C6.26476 19.3964 6.56223 18.6848 7.08936 18.1651C7.61649 17.6458 8.32955 17.3624 9.06672 17.379L16.3208 17.2339H42.6796L49.9885 17.379H49.989C50.7154 17.379 51.4125 17.6701 51.9262 18.1876C52.44 18.7051 52.729 19.4072 52.729 20.139L52.756 109.149Z" fill="#7200A6"/>
<path d="M15.2868 63.9052L23.0752 63.8293L15.2597 84.9778C15.0385 85.6004 15.2869 86.2935 15.8519 86.6305C16.4169 86.9669 17.1394 86.8528 17.5747 86.3578L45.6597 54.0106V54.0111C46.0084 53.6126 46.099 53.0479 45.8929 52.5592C45.6869 52.0704 45.2204 51.7443 44.6937 51.72L35.6446 51.2578L44.9951 35.5396C45.24 35.1128 45.24 34.5863 44.9951 34.1596C44.757 33.7436 44.3213 33.4822 43.8445 33.4696L28.7745 32.8829C28.2296 32.8613 27.7234 33.1677 27.4866 33.6627L14.0332 61.9527C13.8317 62.3813 13.8629 62.8844 14.1153 63.2847C14.3646 63.6908 14.8132 63.9289 15.2869 63.9055L15.2868 63.9052ZM29.5759 35.6152L41.4538 36.0775L32.0899 51.8095C31.8513 52.2237 31.8428 52.7326 32.0676 53.1544C32.2924 53.5762 32.7183 53.8507 33.1928 53.8794L41.7071 54.321L20.4721 78.8298L26.3633 62.9598C26.523 62.534 26.4641 62.0564 26.2059 61.6831C25.9486 61.3147 25.5294 61.096 25.0825 61.0964L17.4927 61.1377L29.5759 35.6152Z" fill="#7200A6"/>
<path d="M9.23145 96.9775H48.9615V108.804H9.23145V96.9775Z" fill="#7200A6"/>
</svg>
